docs/minecraft_heart_1.svg

<?xml version="1.0" encoding="UTF-8" standalone="no"?>
<svg
   version="1.1"
   width="429"
   height="240"
   id="svg26"
   sodipodi:docname="minecraft_heart_1.svg"
   inkscape:version="1.2.2 (b0a8486541, 2022-12-01)"
   xmlns:inkscape="http://www.inkscape.org/namespaces/inkscape"
   xmlns:sodipodi="http://sodipodi.sourceforge.net/DTD/sodipodi-0.dtd"
   xmlns="http://www.w3.org/2000/svg"
   xmlns:svg="http://www.w3.org/2000/svg">
  <defs
     id="defs30" />
  <sodipodi:namedview
     id="namedview28"
     pagecolor="#ffffff"
     bordercolor="#000000"
     borderopacity="0.25"
     inkscape:showpageshadow="2"
     inkscape:pageopacity="0.0"
     inkscape:pagecheckerboard="0"
     inkscape:deskcolor="#d1d1d1"
     showgrid="false"
     inkscape:zoom="3.0536131"
     inkscape:cx="201.07328"
     inkscape:cy="134.10344"
     inkscape:window-width="1854"
     inkscape:window-height="1011"
     inkscape:window-x="0"
     inkscape:window-y="0"
     inkscape:window-maximized="1"
     inkscape:current-layer="layer1" />
  <path
     d="m 1,18 c 0,5.61 0,11.22 0,17 -10.89,0 -21.78,0 -33,0 0,5.61 0,11.22 0,17 -10.89,0 -21.78,0 -33,0 0,22.11 0,44.22 0,67 10.89,0 21.78,0 33,0 0,5.61 0,11.22 0,17 10.89,0 21.78,0 33,0 0,5.61 0,11.22 0,17 10.89,0 21.78,0 33,0 0,5.61 0,11.22 0,17 10.89,0 21.78,0 33,0 0,5.61 0,11.22 0,17 10.89,0 21.78,0 33,0 0,5.61 0,11.22 0,17 10.56,0 21.12,0 32,0 0,-5.61 0,-11.22 0,-17 10.89,0 21.78,0 33,0 0,-5.61 0,-11.22 0,-17 10.89,0 21.78,0 33,0 0,-5.61 0,-11.22 0,-17 10.89,0 21.78,0 33,0 0,-5.61 0,-11.22 0,-17 10.89,0 21.78,0 33,0 0,-5.61 0,-11.22 0,-17 10.89,0 21.78,0 33,0 0,-22.11 0,-44.22 0,-67 -10.89,0 -21.78,0 -33,0 0,-5.61 0,-11.22 0,-17 -10.89,0 -21.78,0 -33,0 0,-5.61 0,-11.22 0,-17 -32.34,0 -64.68,0 -98,0 0,5.61 0,11.22 0,17 -11.22,0 -22.44,0 -34,0 0,-5.61 0,-11.22 0,-17 -32.34,0 -64.68,0 -98,0 z"
     transform="translate(97,18)"
     id="path315" />
  <path
     d="m 0,0 c 64.68,0 129.36,0 196,0 0,5.61 0,11.22 0,17 11.22,0 22.44,0 34,0 0,-5.61 0,-11.22 0,-17 65.67,0 131.34,0 199,0 0,11.22 0,22.44 0,34 C 287.43,34 145.86,34 0,34 0,22.78 0,11.56 0,0 Z"
     transform="translate(0,206)"
     id="path6"
     style="display:inline" />
  <path
     d="m 0,0 c 32.34,0 64.68,0 98,0 0,5.28 0,10.56 0,16 C 65.66,16 33.32,16 0,16 0,10.72 0,5.44 0,0 Z"
     transform="translate(230,19)"
     id="path10" />
  <path
     d="m 0,0 c 32.34,0 64.68,0 98,0 0,5.28 0,10.56 0,16 C 65.66,16 33.32,16 0,16 0,10.72 0,5.44 0,0 Z"
     transform="translate(98,19)"
     id="path12" />
  <path
     d="m 0,0 c 10.56,0 21.12,0 32,0 0,5.28 0,10.56 0,16 C 21.44,16 10.88,16 0,16 0,10.72 0,5.44 0,0 Z"
     transform="translate(362,53)"
     id="path14" />
  <path
     d="m 0,0 c 10.56,0 21.12,0 32,0 0,5.28 0,10.56 0,16 C 21.44,16 10.88,16 0,16 0,10.72 0,5.44 0,0 Z"
     transform="translate(32,53)"
     id="path16" />
  <path
     d="m 0,0 c 10.56,0 21.12,0 32,0 0,5.28 0,10.56 0,16 C 21.44,16 10.88,16 0,16 0,10.72 0,5.44 0,0 Z"
     transform="translate(329,36)"
     id="path18" />
  <path
     d="m 0,0 c 10.56,0 21.12,0 32,0 0,5.28 0,10.56 0,16 C 21.44,16 10.88,16 0,16 0,10.72 0,5.44 0,0 Z"
     transform="translate(197,36)"
     id="path20" />
  <g
     inkscape:groupmode="layer"
     id="layer1"
     inkscape:label="Layer 1">
    <path
       d="m 1,1 c 0,5.28 0,10.56 0,16 10.56,0 21.12,0 32,0 C 33,11.72 33,6.44 33,1 22.44,1 11.88,1 1,1 Z"
       transform="translate(262,69)"
       id="path319" />
    <path
       d="m 34,18 c 0,5.28 0,10.56 0,16 10.56,0 21.12,0 32,0 0,-5.28 0,-10.56 0,-16 -10.56,0 -21.12,0 -32,0 z"
       transform="translate(262,69)"
       id="path321" />
    <path
       d="m 0,0 c 10.56,0 21.12,0 32,0 0,5.28 0,10.56 0,16 C 21.44,16 10.88,16 0,16 0,10.72 0,5.44 0,0 Z"
       transform="translate(65,36)"
       id="path22" />
    <path
       d="m 0,0 c 11.22,0 22.44,0 34,0 0,5.61 0,11.22 0,17 10.89,0 21.78,0 33,0 0,5.94 0,11.88 0,18 -11.22,0 -22.44,0 -34,0 0,-5.61 0,-11.22 0,-17 C 22.11,18 11.22,18 0,18 0,12.06 0,6.12 0,0 Z"
       transform="translate(262,69)"
       id="path24" />
  </g>
  <g
     inkscape:groupmode="layer"
     id="layer2"
     inkscape:label="Layer 2"
     style="display:none">
    <path
       d="m 0,0 c 33,0 66,0 100,0 0,5.61 0,11.22 0,17 10.56,0 21.12,0 32,0 0,-5.61 0,-11.22 0,-17 33,0 66,0 100,0 0,5.61 0,11.22 0,17 10.89,0 21.78,0 33,0 0,5.61 0,11.22 0,17 10.89,0 21.78,0 33,0 0,28.38 0,56.76 0,86 -10.89,0 -21.78,0 -33,0 0,5.61 0,11.22 0,17 -10.89,0 -21.78,0 -33,0 0,5.61 0,11.22 0,17 -10.89,0 -21.78,0 -33,0 0,5.61 0,11.22 0,17 -10.89,0 -21.78,0 -33,0 0,5.28 0,10.56 0,16 54.12,0 108.24,0 164,0 0,0.33 0,0.66 0,1 -65.01,0 -130.02,0 -197,0 0,5.61 0,11.22 0,17 -11.22,0 -22.44,0 -34,0 0,-5.61 0,-11.22 0,-17 -64.68,0 -129.36,0 -196,0 0,-0.33 0,-0.66 0,-1 53.79,0 107.58,0 163,0 0,-5.28 0,-10.56 0,-16 -10.89,0 -21.78,0 -33,0 0,-5.61 0,-11.22 0,-17 -10.89,0 -21.78,0 -33,0 0,-5.61 0,-11.22 0,-17 -10.89,0 -21.78,0 -33,0 0,-5.61 0,-11.22 0,-17 -10.89,0 -21.78,0 -33,0 0,-28.38 0,-56.76 0,-86 10.89,0 21.78,0 33,0 0,-5.61 0,-11.22 0,-17 10.89,0 21.78,0 33,0 C 0,11.39 0,5.78 0,0 Z"
       transform="translate(97,18)"
       id="path8" />
    <path
       d="m 0,0 c 32.34,0 64.68,0 98,0 0,5.61 0,11.22 0,17 11.22,0 22.44,0 34,0 0,-5.61 0,-11.22 0,-17 32.34,0 64.68,0 98,0 0,5.61 0,11.22 0,17 10.89,0 21.78,0 33,0 0,5.61 0,11.22 0,17 10.89,0 21.78,0 33,0 0,22.11 0,44.22 0,67 -10.89,0 -21.78,0 -33,0 0,5.61 0,11.22 0,17 -10.89,0 -21.78,0 -33,0 0,5.61 0,11.22 0,17 -10.89,0 -21.78,0 -33,0 0,5.61 0,11.22 0,17 -10.89,0 -21.78,0 -33,0 0,5.61 0,11.22 0,17 -10.89,0 -21.78,0 -33,0 0,5.61 0,11.22 0,17 -10.56,0 -21.12,0 -32,0 0,-5.61 0,-11.22 0,-17 -10.89,0 -21.78,0 -33,0 0,-5.61 0,-11.22 0,-17 -10.89,0 -21.78,0 -33,0 0,-5.61 0,-11.22 0,-17 -10.89,0 -21.78,0 -33,0 0,-5.61 0,-11.22 0,-17 -10.89,0 -21.78,0 -33,0 0,-5.61 0,-11.22 0,-17 -10.89,0 -21.78,0 -33,0 0,-22.11 0,-44.22 0,-67 10.89,0 21.78,0 33,0 0,-5.61 0,-11.22 0,-17 10.89,0 21.78,0 33,0 C 0,11.39 0,5.78 0,0 Z"
       transform="translate(98,36)"
       id="path4" />
    <path
       d="m 0,0 c 141.57,0 283.14,0 429,0 0,79.2 0,158.4 0,240 -141.57,0 -283.14,0 -429,0 C 0,160.8 0,81.6 0,0 Z"
       id="path2" />
  </g>
</svg>

<?xml version="1.0" encoding="UTF-8"?>
<svg version="1.1" xmlns="http://www.w3.org/2000/svg" width="429" height="240">
<path d="M0 0 C141.57 0 283.14 0 429 0 C429 79.2 429 158.4 429 240 C287.43 240 145.86 240 0 240 C0 160.8 0 81.6 0 0 Z " fill="#FDFDFD" transform="translate(0,0)"/>
<path d="M0 0 C32.34 0 64.68 0 98 0 C98 5.61 98 11.22 98 17 C109.22 17 120.44 17 132 17 C132 11.39 132 5.78 132 0 C164.34 0 196.68 0 230 0 C230 5.61 230 11.22 230 17 C240.89 17 251.78 17 263 17 C263 22.61 263 28.22 263 34 C273.89 34 284.78 34 296 34 C296 56.11 296 78.22 296 101 C285.11 101 274.22 101 263 101 C263 106.61 263 112.22 263 118 C252.11 118 241.22 118 230 118 C230 123.61 230 129.22 230 135 C219.11 135 208.22 135 197 135 C197 140.61 197 146.22 197 152 C186.11 152 175.22 152 164 152 C164 157.61 164 163.22 164 169 C153.11 169 142.22 169 131 169 C131 174.61 131 180.22 131 186 C120.44 186 109.88 186 99 186 C99 180.39 99 174.78 99 169 C88.11 169 77.22 169 66 169 C66 163.39 66 157.78 66 152 C55.11 152 44.22 152 33 152 C33 146.39 33 140.78 33 135 C22.11 135 11.22 135 0 135 C0 129.39 0 123.78 0 118 C-10.89 118 -21.78 118 -33 118 C-33 112.39 -33 106.78 -33 101 C-43.89 101 -54.78 101 -66 101 C-66 78.89 -66 56.78 -66 34 C-55.11 34 -44.22 34 -33 34 C-33 28.39 -33 22.78 -33 17 C-22.11 17 -11.22 17 0 17 C0 11.39 0 5.78 0 0 Z " fill="#FFFFFF" transform="translate(98,36)"/>
<path d="M0 0 C64.68 0 129.36 0 196 0 C196 5.61 196 11.22 196 17 C207.22 17 218.44 17 230 17 C230 11.39 230 5.78 230 0 C295.67 0 361.34 0 429 0 C429 11.22 429 22.44 429 34 C287.43 34 145.86 34 0 34 C0 22.78 0 11.56 0 0 Z " fill="#FEFEFE" transform="translate(0,206)"/>
<path d="M0 0 C33 0 66 0 100 0 C100 5.61 100 11.22 100 17 C110.56 17 121.12 17 132 17 C132 11.39 132 5.78 132 0 C165 0 198 0 232 0 C232 5.61 232 11.22 232 17 C242.89 17 253.78 17 265 17 C265 22.61 265 28.22 265 34 C275.89 34 286.78 34 298 34 C298 62.38 298 90.76 298 120 C287.11 120 276.22 120 265 120 C265 125.61 265 131.22 265 137 C254.11 137 243.22 137 232 137 C232 142.61 232 148.22 232 154 C221.11 154 210.22 154 199 154 C199 159.61 199 165.22 199 171 C188.11 171 177.22 171 166 171 C166 176.28 166 181.56 166 187 C220.12 187 274.24 187 330 187 C330 187.33 330 187.66 330 188 C264.99 188 199.98 188 133 188 C133 193.61 133 199.22 133 205 C121.78 205 110.56 205 99 205 C99 199.39 99 193.78 99 188 C34.32 188 -30.36 188 -97 188 C-97 187.67 -97 187.34 -97 187 C-43.21 187 10.58 187 66 187 C66 181.72 66 176.44 66 171 C55.11 171 44.22 171 33 171 C33 165.39 33 159.78 33 154 C22.11 154 11.22 154 0 154 C0 148.39 0 142.78 0 137 C-10.89 137 -21.78 137 -33 137 C-33 131.39 -33 125.78 -33 120 C-43.89 120 -54.78 120 -66 120 C-66 91.62 -66 63.24 -66 34 C-55.11 34 -44.22 34 -33 34 C-33 28.39 -33 22.78 -33 17 C-22.11 17 -11.22 17 0 17 C0 11.39 0 5.78 0 0 Z M1 18 C1 23.61 1 29.22 1 35 C-9.89 35 -20.78 35 -32 35 C-32 40.61 -32 46.22 -32 52 C-42.89 52 -53.78 52 -65 52 C-65 74.11 -65 96.22 -65 119 C-54.11 119 -43.22 119 -32 119 C-32 124.61 -32 130.22 -32 136 C-21.11 136 -10.22 136 1 136 C1 141.61 1 147.22 1 153 C11.89 153 22.78 153 34 153 C34 158.61 34 164.22 34 170 C44.89 170 55.78 170 67 170 C67 175.61 67 181.22 67 187 C77.89 187 88.78 187 100 187 C100 192.61 100 198.22 100 204 C110.56 204 121.12 204 132 204 C132 198.39 132 192.78 132 187 C142.89 187 153.78 187 165 187 C165 181.39 165 175.78 165 170 C175.89 170 186.78 170 198 170 C198 164.39 198 158.78 198 153 C208.89 153 219.78 153 231 153 C231 147.39 231 141.78 231 136 C241.89 136 252.78 136 264 136 C264 130.39 264 124.78 264 119 C274.89 119 285.78 119 297 119 C297 96.89 297 74.78 297 52 C286.11 52 275.22 52 264 52 C264 46.39 264 40.78 264 35 C253.11 35 242.22 35 231 35 C231 29.39 231 23.78 231 18 C198.66 18 166.32 18 133 18 C133 23.61 133 29.22 133 35 C121.78 35 110.56 35 99 35 C99 29.39 99 23.78 99 18 C66.66 18 34.32 18 1 18 Z " fill="#000000" transform="translate(97,18)"/>
<path d="M0 0 C32.34 0 64.68 0 98 0 C98 5.28 98 10.56 98 16 C65.66 16 33.32 16 0 16 C0 10.72 0 5.44 0 0 Z " fill="#FFFFFF" transform="translate(230,19)"/>
<path d="M0 0 C32.34 0 64.68 0 98 0 C98 5.28 98 10.56 98 16 C65.66 16 33.32 16 0 16 C0 10.72 0 5.44 0 0 Z " fill="#FFFFFF" transform="translate(98,19)"/>
<path d="M0 0 C10.56 0 21.12 0 32 0 C32 5.28 32 10.56 32 16 C21.44 16 10.88 16 0 16 C0 10.72 0 5.44 0 0 Z " fill="#FFFFFF" transform="translate(362,53)"/>
<path d="M0 0 C10.56 0 21.12 0 32 0 C32 5.28 32 10.56 32 16 C21.44 16 10.88 16 0 16 C0 10.72 0 5.44 0 0 Z " fill="#FFFFFF" transform="translate(32,53)"/>
<path d="M0 0 C10.56 0 21.12 0 32 0 C32 5.28 32 10.56 32 16 C21.44 16 10.88 16 0 16 C0 10.72 0 5.44 0 0 Z " fill="#FFFFFF" transform="translate(329,36)"/>
<path d="M0 0 C10.56 0 21.12 0 32 0 C32 5.28 32 10.56 32 16 C21.44 16 10.88 16 0 16 C0 10.72 0 5.44 0 0 Z " fill="#FFFFFF" transform="translate(197,36)"/>
<path d="M0 0 C10.56 0 21.12 0 32 0 C32 5.28 32 10.56 32 16 C21.44 16 10.88 16 0 16 C0 10.72 0 5.44 0 0 Z " fill="#FFFFFF" transform="translate(65,36)"/>
<path d="M0 0 C11.22 0 22.44 0 34 0 C34 5.61 34 11.22 34 17 C44.89 17 55.78 17 67 17 C67 22.94 67 28.88 67 35 C55.78 35 44.56 35 33 35 C33 29.39 33 23.78 33 18 C22.11 18 11.22 18 0 18 C0 12.06 0 6.12 0 0 Z M1 1 C1 6.28 1 11.56 1 17 C11.56 17 22.12 17 33 17 C33 11.72 33 6.44 33 1 C22.44 1 11.88 1 1 1 Z M34 18 C34 23.28 34 28.56 34 34 C44.56 34 55.12 34 66 34 C66 28.72 66 23.44 66 18 C55.44 18 44.88 18 34 18 Z " fill="#000000" transform="translate(262,69)"/>
</svg>
